src/assets/icons/socialIcons/telegram.svg

<svg width="20" height="20" viewBox="0 0 20 20" fill="none" xmlns="http://www.w3.org/2000/svg" class="color-white"><path fill-rule="evenodd" clip-rule="evenodd" d="M2.23741 8.8879C7.06923 6.62993 10.2912 5.14134 11.9033 4.42212C16.5063 2.36862 17.4627 2.0119 18.0861 2.00013C18.2232 1.99753 18.5298 2.03398 18.7284 2.20682C18.8961 2.35275 18.9422 2.5499 18.9643 2.68826C18.9864 2.82663 19.0139 3.14183 18.992 3.38811C18.7426 6.1992 17.6633 13.021 17.1142 16.1694C16.8818 17.5017 16.4244 17.9484 15.9815 17.9921C15.0189 18.0871 14.288 17.3098 13.3558 16.6543C11.897 15.6287 11.0729 14.9902 9.65691 13.9893C8.02048 12.8327 9.08131 12.1969 10.0139 11.158C10.258 10.8861 14.4988 6.74868 14.5809 6.37335C14.5912 6.32641 14.6007 6.15143 14.5038 6.05904C14.4069 5.96664 14.2639 5.99824 14.1606 6.02337C14.0143 6.05898 11.6839 7.71112 7.16938 10.9798C6.5079 11.467 5.90875 11.7044 5.37193 11.6919C4.78013 11.6782 3.64175 11.333 2.79548 11.038C1.75749 10.6761 0.932524 10.4847 1.00436 9.87009C1.04178 9.54996 1.45279 9.22256 2.23741 8.8879Z" fill="currentColor"></path></svg>

<svg xmlns="http://www.w3.org/2000/svg" width="20" height="20" fill="none" class="color-white"><path fill="currentColor" fill-rule="evenodd" d="M2.237 8.888C7.07 6.63 10.291 5.14 11.903 4.422c4.603-2.053 5.56-2.41 6.183-2.422.137-.002.444.034.642.207.168.146.214.343.236.481.022.139.05.454.028.7-.25 2.811-1.329 9.633-1.878 12.781-.232 1.333-.69 1.78-1.133 1.823-.962.095-1.693-.682-2.625-1.338-1.459-1.025-2.283-1.664-3.7-2.665-1.636-1.156-.575-1.792.358-2.831.244-.272 4.485-4.41 4.567-4.785.01-.047.02-.222-.077-.314s-.24-.06-.343-.036c-.147.036-2.477 1.688-6.992 4.957-.661.487-1.26.724-1.797.712-.592-.014-1.73-.359-2.577-.654-1.038-.362-1.862-.553-1.79-1.168.037-.32.448-.647 1.232-.982Z" clip-rule="evenodd"/></svg>
